symbols/web/replay_circle_filled/materialsymbolsoutlined/replay_circle_filled_wght600grad200_48px.svg

<svg xmlns="http://www.w3.org/2000/svg" height="48" width="48"><path d="M24 37.65q5.25 0 8.925-3.675Q36.6 30.3 36.6 25.05q0-5.3-3.625-8.95-3.625-3.65-8.875-3.7L27 9.45l-3.45-3.4-8.85 8.8 8.85 8.8 3.45-3.4-2.9-2.95q3.25.1 5.425 2.325T31.7 25q0 3.2-2.25 5.475Q27.2 32.75 24 32.75q-3.3 0-5.5-2.35t-2.2-5.65h-4.9q0 5.3 3.65 9.1t8.95 3.8Zm0 7.3q-4.3 0-8.125-1.65T9.2 38.8q-2.85-2.85-4.5-6.675Q3.05 28.3 3.05 24t1.65-8.125Q6.35 12.05 9.2 9.2q2.85-2.85 6.65-4.5 3.8-1.65 8.15-1.65 4.3 0 8.15 1.65Q36 6.35 38.825 9.2q2.825 2.85 4.475 6.675Q44.95 19.7 44.95 24q0 4.35-1.65 8.175-1.65 3.825-4.5 6.65T32.125 43.3Q28.3 44.95 24 44.95Z"/></svg>

<svg xmlns="http://www.w3.org/2000/svg" height="48" width="48"><path d="M24 37.65Q29.25 37.65 32.925 33.975Q36.6 30.3 36.6 25.05Q36.6 19.75 32.975 16.1Q29.35 12.45 24.1 12.4L27 9.45L23.55 6.05L14.7 14.85L23.55 23.65L27 20.25L24.1 17.3Q27.35 17.4 29.525 19.625Q31.7 21.85 31.7 25Q31.7 28.2 29.45 30.475Q27.2 32.75 24 32.75Q20.7 32.75 18.5 30.4Q16.3 28.05 16.3 24.75H11.4Q11.4 30.05 15.05 33.85Q18.7 37.65 24 37.65ZM24 44.95Q19.7 44.95 15.875 43.3Q12.05 41.65 9.2 38.8Q6.35 35.95 4.7 32.125Q3.05 28.3 3.05 24Q3.05 19.7 4.7 15.875Q6.35 12.05 9.2 9.2Q12.05 6.35 15.85 4.7Q19.65 3.05 24 3.05Q28.3 3.05 32.15 4.7Q36 6.35 38.825 9.2Q41.65 12.05 43.3 15.875Q44.95 19.7 44.95 24Q44.95 28.35 43.3 32.175Q41.65 36 38.8 38.825Q35.95 41.65 32.125 43.3Q28.3 44.95 24 44.95Z"/></svg>
